assets/Reflex.svg

<svg width="56" height="12" viewBox="0 0 56 12" fill="none" xmlns="http://www.w3.org/2000/svg">
<path d="M0 11.6V0.400024H8.96V4.88002H6.72V2.64002H2.24V4.88002H6.72V7.12002H2.24V11.6H0ZM6.72 11.6V7.12002H8.96V11.6H6.72Z" fill="#110F1F"/>
<path d="M11.2 11.6V0.400024H17.92V2.64002H13.44V4.88002H17.92V7.12002H13.44V9.36002H17.92V11.6H11.2Z" fill="#110F1F"/>
<path d="M20.16 11.6V0.400024H26.88V2.64002H22.4V4.88002H26.88V7.12002H22.4V11.6H20.16Z" fill="#110F1F"/>
<path d="M29.12 11.6V0.400024H31.36V9.36002H35.84V11.6H29.12Z" fill="#110F1F"/>
<path d="M38.08 11.6V0.400024H44.8V2.64002H40.32V4.88002H44.8V7.12002H40.32V9.36002H44.8V11.6H38.08Z" fill="#110F1F"/>
<path d="M47.04 4.88002V0.400024H49.28V4.88002H47.04ZM53.76 4.88002V0.400024H56V4.88002H53.76ZM49.28 7.12002V4.88002H53.76V7.12002H49.28ZM47.04 11.6V7.12002H49.28V11.6H47.04ZM53.76 11.6V7.12002H56V11.6H53.76Z" fill="#110F1F"/>
</svg>

<svg xmlns="http://www.w3.org/2000/svg" width="56" height="12" fill="none" viewBox="0 0 56 12"><path fill="#110F1F" d="M0 11.6V.4h8.96v4.48H6.72V2.64H2.24v2.24h4.48v2.24H2.24v4.48zm6.72 0V7.12h2.24v4.48zm4.48 0V.4h6.72v2.24h-4.48v2.24h4.48v2.24h-4.48v2.24h4.48v2.24zm8.96 0V.4h6.72v2.24H22.4v2.24h4.48v2.24H22.4v4.48zm8.96 0V.4h2.24v8.96h4.48v2.24zm8.96 0V.4h6.72v2.24h-4.48v2.24h4.48v2.24h-4.48v2.24h4.48v2.24zm8.96-6.72V.4h2.24v4.48zm6.72 0V.4H56v4.48zm-4.48 2.24V4.88h4.48v2.24zm-2.24 4.48V7.12h2.24v4.48zm6.72 0V7.12H56v4.48z"/></svg>
